src/topics/icons/mocha.svg

<?xml version="1.0" encoding="UTF-8" standalone="no"?>
<svg width="256px" height="291px" viewBox="0 0 256 291" version="1.1" xmlns="http://www.w3.org/2000/svg" xmlns:xlink="http://www.w3.org/1999/xlink" preserveAspectRatio="xMidYMid">
	<g>
		<path d="M248.1951,223.7661 L135.8051,288.7031 C130.9661,291.5121 125.0341,291.5121 120.1951,288.7031 L7.8051,223.7661 C2.9661,220.9561 0.0001,215.8051 0.0001,210.3421 L0.0001,80.4681 C0.0001,74.8491 2.9661,69.8541 7.8051,67.0441 L120.1951,2.1071 C125.0341,-0.7019 130.9661,-0.7019 135.8051,2.1071 L248.1951,67.0441 C253.0341,69.8541 256.0001,75.0051 256.0001,80.4681 L256.0001,210.3421 C255.8441,215.8051 252.8781,220.9561 248.1951,223.7661 L248.1951,223.7661 Z" fill="#8D6748"></path>
		<path d="M127.8439,19.7466 C125.5029,19.7466 123.1609,20.3706 121.1319,21.6196 L24.0389,77.6586 C19.8239,80.0006 17.3269,84.5266 17.3269,89.2096 L17.3269,201.2876 C17.3269,206.1266 19.8239,210.4976 24.0389,212.8396 L121.1319,268.8786 C123.1609,270.1276 125.5029,270.7516 127.8439,270.7516 C130.1849,270.7516 132.5269,270.1276 134.5559,268.8786 L231.6489,212.8396 C235.8639,210.4976 238.3609,205.9706 238.3609,201.2886 L238.3609,89.2096 C238.3609,84.3706 235.8639,80.0006 231.6489,77.6586 L134.5559,21.6196 C132.5269,20.3706 130.1849,19.7466 127.8439,19.7466 L127.8439,19.7466 Z M127.8439,24.4296 L127.8439,24.4296 C129.4049,24.4296 130.8099,24.8976 132.2149,25.6786 L229.3069,81.7176 C231.9609,83.2786 233.6779,86.2446 233.6779,89.3666 L233.6779,201.4446 C233.6779,204.5666 231.9609,207.5316 229.3069,209.0926 L132.2149,265.1316 C130.8099,265.9126 129.4049,266.3806 127.8439,266.3806 C126.2829,266.3806 124.7219,265.9126 123.4729,265.1316 L26.3809,209.0926 C23.7269,207.5316 22.0099,204.5666 22.0099,201.4446 L22.0099,89.3666 C22.0099,86.2446 23.7269,83.2786 26.3809,81.7176 L123.4729,25.6786 C124.8779,24.8976 126.4389,24.4296 127.8439,24.4296 L127.8439,24.4296 Z M118.868,122.147 L131.98,122.147 C132.449,122.147 132.761,121.99 133.073,121.678 C140.878,112.937 141.659,94.673 141.659,89.21 C141.659,88.43 141.034,87.649 140.098,87.649 L125.424,87.649 L110.751,87.649 C109.971,87.649 109.19,88.273 109.19,89.21 C109.19,94.517 109.971,112.781 117.776,121.678 C118.088,121.99 118.4,122.147 118.868,122.147 Z M115.278,92.488 L125.58,92.488 L135.883,92.488 C136.663,92.488 137.444,93.112 137.444,94.049 C137.444,98.42 136.663,110.751 131.356,117.151 C130.888,117.464 130.576,117.62 130.107,117.62 L120.898,117.62 C120.429,117.62 120.117,117.464 119.805,117.151 C114.497,110.908 113.873,98.42 113.717,94.049 C113.717,93.269 114.341,92.488 115.278,92.488 Z M128.3902,84.5271 C128.3902,84.5271 134.0102,81.2491 130.5752,75.3171 C128.5462,72.1951 127.6102,69.5421 128.3902,68.4491 C126.3612,70.9471 122.9272,73.6001 126.6732,79.2201 C127.9222,80.6251 128.5462,83.5901 128.3902,84.5271 Z M122.1464,84.9953 C122.1464,84.9953 125.8924,82.8103 123.5514,78.7513 C122.1464,76.7223 121.5224,74.8493 122.1464,74.2243 C120.7414,75.9413 118.5564,77.6583 121.0534,81.5613 C121.8344,82.3413 122.1464,84.3713 122.1464,84.9953 Z M121.6781,115.7466 L129.4831,115.7466 C129.7951,115.7466 130.1071,115.5906 130.4191,115.2786 C133.0731,112.1566 134.3221,107.3176 134.9461,103.1026 C134.9461,103.1026 134.7901,104.5076 131.0441,105.9126 C125.8931,107.7856 116.8391,106.5366 116.8391,106.5366 C117.6191,109.8146 118.8681,112.9366 120.7411,115.2786 C120.8971,115.5906 121.3661,115.7466 121.6781,115.7466 Z M62.9854,159.61 L62.9854,128.391 L57.2094,128.391 L47.6874,143.064 L38.1654,128.391 L32.3904,128.391 L32.3904,159.766 L37.8534,159.766 L37.8534,137.444 L47.5314,151.961 L47.6874,151.961 L57.5224,137.288 L57.5224,159.61 L62.9854,159.61 Z M97.9516,129.0154 C95.9216,128.2344 93.7366,127.7664 91.3956,127.7664 C89.0536,127.7664 86.8686,128.0784 84.8386,129.0154 C82.8096,129.7954 81.0926,131.0444 79.6876,132.4494 C78.1266,134.0104 77.0346,135.7274 76.2536,137.6004 C75.4736,139.6294 75.0046,141.6584 75.0046,143.8444 L75.0046,144.0004 C75.0046,146.1854 75.4736,148.3714 76.2536,150.2444 C77.0346,152.2734 78.1266,153.9904 79.5316,155.3954 C80.9366,156.8004 82.6536,158.0494 84.6826,158.8294 C86.7126,159.6104 88.8976,160.0784 91.2386,160.0784 C93.5806,160.0784 95.7656,159.7664 97.7956,158.8294 C99.8246,158.0494 101.5416,156.8004 102.9466,155.3954 C104.5076,153.8344 105.5996,152.1174 106.3806,150.2444 C107.1606,148.2154 107.6296,146.1854 107.6296,144.0004 L107.6296,143.8444 C107.6296,141.6584 107.1606,139.4734 106.3806,137.6004 C105.5996,135.5714 104.5076,133.8544 103.1026,132.4494 C101.6976,131.0444 99.9806,129.7954 97.9516,129.0154 Z M101.6976,144.1564 C101.6976,145.5614 101.3856,146.9664 100.9166,148.3714 C100.2926,149.6194 99.6686,150.8684 98.7316,151.8054 C97.7956,152.7414 96.7026,153.5224 95.4536,154.1464 C94.2046,154.7714 92.7996,155.0834 91.2386,155.0834 C89.8346,155.0834 88.2736,154.7714 87.0246,154.1464 C85.7756,153.5224 84.6826,152.7414 83.7466,151.8054 C82.8096,150.7124 82.0296,149.6194 81.5606,148.2154 C81.0926,146.8104 80.7806,145.4054 80.7806,143.8444 L80.7806,143.6884 C80.7806,142.2834 81.0926,140.8784 81.5606,139.4734 C82.1856,138.2244 82.8096,136.9764 83.7466,136.0394 C84.6826,135.1024 85.7756,134.3224 87.0246,133.6974 C88.2736,133.0734 89.6776,132.7614 91.2386,132.7614 C92.7996,132.7614 94.2046,133.0734 95.4536,133.6974 C96.7026,134.3224 97.7956,135.1024 98.7316,136.0394 C99.6686,137.1324 100.4486,138.2244 100.9166,139.6294 C101.3856,141.0344 101.6976,142.4394 101.6976,144.0004 L101.6976,144.1564 Z M124.8,139.4734 C125.424,138.2244 126.049,136.9754 126.985,136.0394 C127.922,135.1024 129.015,134.3224 130.263,133.6974 C131.512,133.0734 132.761,132.7614 134.322,132.7614 C136.195,132.7614 137.756,133.0734 139.161,133.8534 C140.566,134.6344 141.815,135.5714 143.063,136.6634 L146.654,132.6054 C145.873,131.8244 145.093,131.2004 144.312,130.5754 C143.532,129.9514 142.595,129.4834 141.659,129.0144 C140.566,128.7024 139.629,128.3904 138.38,128.0784 C137.132,127.9224 135.883,127.7664 134.478,127.7664 C131.98,127.7664 129.951,128.2344 127.922,129.0144 C125.893,129.7954 124.176,131.0444 122.771,132.4494 C121.366,134.0104 120.273,135.7274 119.493,137.6004 C118.712,139.4734 118.244,141.6584 118.244,143.8444 L118.244,144.0004 C118.244,146.1854 118.712,148.2144 119.493,150.2444 C120.273,152.2734 121.366,153.9904 122.771,155.3954 C124.176,156.8004 125.893,158.0494 127.766,158.8294 C129.639,159.6104 131.668,160.0784 134.01,160.0784 C135.415,160.0784 136.819,160.0784 138.224,159.7664 C139.317,159.6104 140.566,159.1414 141.502,158.6734 C142.439,158.2054 143.376,157.7364 144.312,156.9564 C145.249,156.1754 146.029,155.5514 146.81,154.6144 L143.22,151.0244 C141.815,152.2734 140.41,153.2104 139.161,153.9904 C137.912,154.7714 136.195,155.0834 134.322,155.0834 C132.917,155.0834 131.512,154.6144 130.263,154.1464 C129.015,153.6784 127.922,152.7414 126.985,151.8054 C126.049,150.7124 125.268,149.6194 124.8,148.2144 C124.332,146.8104 124.019,145.4054 124.019,143.8444 L124.019,143.6884 C124.019,142.2834 124.332,140.8784 124.8,139.4734 Z M157.7366,128.3906 L157.7366,159.6096 L163.1996,159.6096 L163.1996,146.4976 L178.1856,146.4976 L178.1856,159.6096 L183.6486,159.6096 L183.6486,128.3906 L178.1856,128.3906 L178.1856,141.3466 L163.1996,141.3466 L163.1996,128.3906 L157.7366,128.3906 Z M217.6784,152.1175 L220.8004,159.6105 L226.5754,159.6105 L212.8394,128.2345 L207.8434,128.2345 L194.1074,159.6105 L199.7264,159.6105 L203.0044,152.1175 L217.6784,152.1175 Z M210.3414,134.7905 L215.6484,147.2785 L205.0344,147.2785 L210.3414,134.7905 Z M28.488,171.161 L227.512,171.161 L227.512,169.444 L28.488,169.444 L28.488,171.161 Z M142.9073,110.7515 C142.9073,111.3755 142.7513,111.8445 142.7513,112.4685 L227.5123,112.4685 L227.5123,110.7515 L142.9073,110.7515 Z M108.0975,110.7515 L28.4875,110.7515 L28.4875,112.4685 L108.2535,112.4685 C108.2535,111.8445 108.0975,111.3755 108.0975,110.7515 Z" fill="#FFFFFF"></path>
	</g>
</svg>

<svg height="291" preserveAspectRatio="xMidYMid" viewBox="0 0 256 291" width="256" xmlns="http://www.w3.org/2000/svg"><path d="m248.1951 223.7661-112.39 64.937c-4.839 2.809-10.771 2.809-15.61 0l-112.39-64.937c-4.839-2.81-7.805-7.961-7.805-13.424v-129.874c0-5.619 2.966-10.614 7.805-13.424l112.39-64.937c4.839-2.809 10.771-2.809 15.61 0l112.39 64.937c4.839 2.81 7.805 7.961 7.805 13.424v129.874c-.156 5.463-3.122 10.614-7.805 13.424z" fill="#8d6748"/><path d="m127.8439 19.7466c-2.341 0-4.683.624-6.712 1.873l-97.093 56.039c-4.215 2.342-6.712 6.868-6.712 11.551v112.078c0 4.839 2.497 9.21 6.712 11.552l97.093 56.039c2.029 1.249 4.371 1.873 6.712 1.873s4.683-.624 6.712-1.873l97.093-56.039c4.215-2.342 6.712-6.869 6.712-11.551v-112.079c0-4.839-2.497-9.209-6.712-11.551l-97.093-56.039c-2.029-1.249-4.371-1.873-6.712-1.873zm0 4.683c1.561 0 2.966.468 4.371 1.249l97.092 56.039c2.654 1.561 4.371 4.527 4.371 7.649v112.078c0 3.122-1.717 6.087-4.371 7.648l-97.092 56.039c-1.405.781-2.81 1.249-4.371 1.249s-3.122-.468-4.371-1.249l-97.092-56.039c-2.654-1.561-4.371-4.526-4.371-7.648v-112.078c0-3.122 1.717-6.088 4.371-7.649l97.092-56.039c1.405-.781 2.966-1.249 4.371-1.249zm-8.9759 97.7174h13.112c.469 0 .781-.157 1.093-.469 7.805-8.741 8.586-27.005 8.586-32.468 0-.78-.625-1.561-1.561-1.561h-14.674-14.673c-.78 0-1.561.624-1.561 1.561 0 5.307.781 23.571 8.586 32.468.312.312.624.469 1.092.469zm-3.59-29.659h10.302 10.303c.78 0 1.561.624 1.561 1.561 0 4.371-.781 16.702-6.088 23.102-.468.313-.78.469-1.249.469h-9.209c-.469 0-.781-.156-1.093-.469-5.308-6.243-5.932-18.731-6.088-23.102 0-.78.624-1.561 1.561-1.561zm13.1122-7.9609s5.62-3.278 2.185-9.21c-2.029-3.122-2.965-5.775-2.185-6.868-2.029 2.498-5.463 5.151-1.717 10.771 1.249 1.405 1.873 4.37 1.717 5.307zm-6.2438.4682s3.746-2.185 1.405-6.244c-1.405-2.029-2.029-3.902-1.405-4.527-1.405 1.717-3.59 3.434-1.093 7.337.781.78 1.093 2.81 1.093 3.434zm-.4683 30.7513h7.805c.312 0 .624-.156.936-.468 2.654-3.122 3.903-7.961 4.527-12.176 0 0-.156 1.405-3.902 2.81-5.151 1.873-14.205.624-14.205.624.78 3.278 2.029 6.4 3.902 8.742.156.312.625.468.937.468zm-58.6927 43.8634v-31.219h-5.776l-9.522 14.673-9.522-14.673h-5.775v31.375h5.463v-22.322l9.678 14.517h.156l9.835-14.673v22.322zm34.9662-30.5946c-2.03-.781-4.215-1.249-6.556-1.249-2.342 0-4.527.312-6.557 1.249-2.029.78-3.746 2.029-5.151 3.434-1.561 1.561-2.653 3.278-3.434 5.151-.78 2.029-1.249 4.058-1.249 6.244v.156c0 2.185.469 4.371 1.249 6.244.781 2.029 1.873 3.746 3.278 5.151s3.122 2.654 5.151 3.434c2.03.781 4.215 1.249 6.556 1.249 2.342 0 4.527-.312 6.557-1.249 2.029-.78 3.746-2.029 5.151-3.434 1.561-1.561 2.653-3.278 3.434-5.151.78-2.029 1.249-4.059 1.249-6.244v-.156c0-2.186-.469-4.371-1.249-6.244-.781-2.029-1.873-3.746-3.278-5.151s-3.122-2.654-5.151-3.434zm3.746 15.141c0 1.405-.312 2.81-.781 4.215-.624 1.248-1.248 2.497-2.185 3.434-.936.936-2.029 1.717-3.278 2.341-1.249.625-2.654.937-4.215.937-1.404 0-2.965-.312-4.214-.937-1.249-.624-2.342-1.405-3.278-2.341-.937-1.093-1.717-2.186-2.186-3.59-.468-1.405-.78-2.81-.78-4.371v-.156c0-1.405.312-2.81.78-4.215.625-1.249 1.249-2.497 2.186-3.434.936-.937 2.029-1.717 3.278-2.342 1.249-.624 2.653-.936 4.214-.936s2.966.312 4.215.936c1.249.625 2.342 1.405 3.278 2.342.937 1.093 1.717 2.185 2.185 3.59.469 1.405.781 2.81.781 4.371zm23.1024-4.683c.624-1.249 1.249-2.498 2.185-3.434.937-.937 2.03-1.717 3.278-2.342 1.249-.624 2.498-.936 4.059-.936 1.873 0 3.434.312 4.839 1.092 1.405.781 2.654 1.718 3.902 2.81l3.591-4.058c-.781-.781-1.561-1.405-2.342-2.03-.78-.624-1.717-1.092-2.653-1.561-1.093-.312-2.03-.624-3.279-.936-1.248-.156-2.497-.312-3.902-.312-2.498 0-4.527.468-6.556 1.248-2.029.781-3.746 2.03-5.151 3.435-1.405 1.561-2.498 3.278-3.278 5.151-.781 1.873-1.249 4.058-1.249 6.244v.156c0 2.185.468 4.214 1.249 6.244.78 2.029 1.873 3.746 3.278 5.151s3.122 2.654 4.995 3.434c1.873.781 3.902 1.249 6.244 1.249 1.405 0 2.809 0 4.214-.312 1.093-.156 2.342-.625 3.278-1.093.937-.468 1.874-.937 2.81-1.717.937-.781 1.717-1.405 2.498-2.342l-3.59-3.59c-1.405 1.249-2.81 2.186-4.059 2.966-1.249.781-2.966 1.093-4.839 1.093-1.405 0-2.81-.469-4.059-.937-1.248-.468-2.341-1.405-3.278-2.341-.936-1.093-1.717-2.186-2.185-3.591-.468-1.404-.781-2.809-.781-4.37v-.156c0-1.405.313-2.81.781-4.215zm32.9366-11.0828v31.219h5.463v-13.112h14.986v13.112h5.463v-31.219h-5.463v12.956h-14.986v-12.956zm59.9418 23.7269 3.122 7.493h5.775l-13.736-31.376h-4.996l-13.736 31.376h5.619l3.278-7.493zm-7.337-17.327 5.307 12.488h-10.614zm-181.8534 36.3705h199.024v-1.717h-199.024zm114.4193-60.4095c0 .624-.156 1.093-.156 1.717h84.761v-1.717zm-34.8098 0h-79.61v1.717h79.766c0-.624-.156-1.093-.156-1.717z" fill="#fff"/></svg>
